X:058
T:Grandfathers Tune
M:4/4
L:1/8
K:D
F2 A2 B2 c2 | dcde f2 a2 | g2 f2 e2 d2 | c2 B2 AB AG |
F2 A2 B2 c2 | dcde f2 a2 | g2 f2 e2 Bc | d2 f2 d4 :||
e2 AA e2 AA | g2 f2 e2 AA | g2 f2 e2 d2 | c2 B2 AB AG |
F2 A2 B2 c2 | dcde f2 a2 | g2 f2 e2 Bc | d2 f2 d4 :||
